icons/drone_light.svg

<svg viewBox="0 0 230 230" xmlns="http://www.w3.org/2000/svg"><g transform="translate(-35.000000, -35.000000)" fill="#37474f"><path d="M90.2882214,69.3797473 L89.4295832,70.2383855 L124.476463,105.285265 C119.520903,113.022443 116.666667,122.524707 116.666667,133.333333 C116.666667,163.38141 138.72549,183.333333 166.666667,183.333333 C177.107498,183.333333 186.726972,180.547433 194.681066,175.489868 L229.90668,210.715482 C211.655003,234.822389 182.652657,250 150,250 C94.7802198,250 50,206.593407 50,150 C50,116.344376 65.8368878,87.3523756 90.2882214,69.3797473 Z M106.958511,59.4830419 C119.995354,53.3798856 134.591235,50 150,50 C205.21978,50 250,93.4065934 250,150 C250,165.565882 246.612323,180.134166 240.551518,193.076049 L208.85687,161.381401 C213.81243,153.644224 216.666667,144.14196 216.666667,133.333333 C216.666667,103.285256 194.607843,83.3333333 166.666667,83.3333333 C156.225835,83.3333333 146.606361,86.1192334 138.652268,91.1767986 L106.958511,59.4830419 Z M166.666667,163.333333 C149.901961,163.333333 136.666667,151.362179 136.666667,133.333333 C136.666667,115.304487 149.901961,103.333333 166.666667,103.333333 C183.431373,103.333333 196.666667,115.304487 196.666667,133.333333 C196.666667,151.362179 183.431373,163.333333 166.666667,163.333333 Z"/></g></svg>

<?xml version="1.0" encoding="UTF-8"?>
<svg version="1.1" viewBox="0 0 230 230" xmlns="http://www.w3.org/2000/svg">
 <g transform="matrix(.97114 0 0 .97114 -30.671 -30.671)" fill="#455a64">
  <path d="m90.288 69.38-0.85864 0.85864 35.047 35.047c-4.9556 7.7372-7.8098 17.239-7.8098 28.048 0 30.048 22.059 50 50 50 10.441 0 20.06-2.7859 28.014-7.8435l35.226 35.226c-18.252 24.107-47.254 39.285-79.907 39.285-55.22 0-100-43.407-100-100 0-33.656 15.837-62.648 40.288-80.62zm16.67-9.8967c13.037-6.1032 27.633-9.483 43.041-9.483 55.22 0 100 43.407 100 100 0 15.566-3.3877 30.134-9.4485 43.076l-31.695-31.695c4.9556-7.7372 7.8098-17.239 7.8098-28.048 0-30.048-22.059-50-50-50-10.441 0-20.06 2.7859-28.014 7.8435zm59.708 103.85c-16.765 0-30-11.971-30-30 0-18.029 13.235-30 30-30 16.765 0 30 11.971 30 30 0 18.029-13.235 30-30 30z" fill="#455a64"/>
 </g>
</svg>
